X:12880
T:Schottisch  CF (st07828) 
T:Hanny Christen. Bd.V  Basel II, Jura. S.191  (st07828) orig. C,F
S: Basel II. "Mundwilermusig", Tenniken. S.183-219.
S:Überliefert durch Hermann und Johannes Mundwiler und Ernst Otter.
P:ABC
R:Schottisch
M:2/4
L:1/16
K:C %%MIDI gchordon
GF |: [P:A]  "C"EGFA G2c2 | EGFA G2c2 | "G7"g2f2 {/g}fef2 | "C"a2g2 g2GF | EGFA G2c2 | EGFA G2c2 | "G7"g2f2 {/g}fef2 |1 
"C"c2e2 c2GF :|2 "C"c2e2 c2((3Gce) ||  [P:B] "C"g4 .e(Gce) | g4.e(Gce) |  "G7"g2f2 a3f | Tf4 "C"ec'((3Gce) | g4 .e(Gce) | g4.e(Gce) |  "G7"g2f2 a2B2 | 
"C"c2e2 B2c'2 || [K:F] [P:C] ("F"c'4c').a.f.d | (c4c).f.a.c' | ("C7"d'2c'2) (d'2c'2) | ("F"c'2a2)  .f'2.a2 | (c'4c').a.f.d | (c4c).f.a.c' | ("C7"d'2c'2) .b2.e2  |  "F"f2a2 f2z2 |] 
W:
%W:Parts: ABC
W:Anmerkung H.C.: Liestal 12, s.V. 169
%W:Anmerkung Hrsg,:
% st07828
% Aug 31, 2018

